X:1
T: Queen Elizabeth's March
C:J. Moir
R:Jig
Q:180
K:A
M:6/8
L:1/16
|:e2|A2c2e2 a4e2|f4a2 e2c2A2|A2c2e2 a2e2c2|B2=G2B2 d2c2B2|
A2c2e2 a4e2|f4a2 e2c2A2|B2=G2B2 f4e2|c2A2A2 A4e2:|
|:a4e2 c4e2|f2a2f2 e2c2A2|a4e2 c4e2|B2=G2B2 d2c2B2|
|1a4e2 c4e2|f2a2f2 e2c2A2|B2=G2B2 f4e2|c2A2A2 A4e2:|
|2A2c2e2 A2d2f2|c2e2a2 e2c2A2|B2=G2B2 f4e2|c2A2A2 A4||
